symbolic/22x22/apps/invesalius.svg

<svg xmlns="http://www.w3.org/2000/svg" width="22" height="22" version="1.1">
 <path style="opacity:0.2" d="m 10,1.5 a 8,8 0 0 1 8,8 8,8 0 0 1 -0.0078,0.253906 L 18.541016,10.705078 19.865234,13 A 1.0001,1.0001 0 0 1 19,14.5 h -1 v 2.578125 C 18,17.865388 17.365388,18.5 16.578125,18.5 H 14 v 1.578125 C 14,20.865388 13.365388,21.5 12.578125,21.5 H 6.421875 C 5.634612,21.5 5,20.865388 5,20.078125 V 15.744141 A 8,8 0 0 1 2,9.5 a 8,8 0 0 1 8,-8 z"/>
 <circle style="fill:#4897e1" cx="-10" cy="9" r="8" transform="scale(-1,1)"/>
 <rect style="fill:#4897e1" width="9" height="9" x="-14" y="12" rx="1.421" ry="1.421" transform="scale(-1,1)"/>
 <rect style="fill:#4897e1" width="9" height="9" x="-18" y="9" rx="1.421" ry="1.421" transform="scale(-1,1)"/>
 <path style="fill:#4897e1" d="m 16.402231,7.4091795 a 1.0001,1.0001 0 0 1 0.8125,0.4990235 L 18.540903,10.204102 19.866099,12.5 A 1.0001,1.0001 0 0 1 18.999888,14 H 13.69813 a 1.0001,1.0001 0 0 1 -0.866211,-1.5 l 1.325195,-2.295898 1.326172,-2.295899 a 1.0001,1.0001 0 0 1 0.819336,-0.4990235 1.0001,1.0001 0 0 1 0.09961,0 z"/>
 <path style="opacity:0.2;fill:#ffffff" d="M 10,1 A 8,8 0 0 1 18,9 8,8 0 0 1 17.9922,9.253906 8,8 0 0 0 10,1.5 8,8 0 0 0 2.011719,9.25 8,8 0 0 1 2,9 8,8 0 0 1 10,1 Z m 7.992187,8.253906 0.548829,0.951172 L 19.865234,12.5 A 1.0001,1.0001 0 0 1 19.966797,13.25 1.0001,1.0001 0 0 0 19.865234,13 L 18.541016,10.705078 17.992187,9.753906 A 8,8 0 0 0 18,9.5 8,8 0 0 0 17.99219,9.253906 Z"/>
 <path style="opacity:0.3" d="M 4.71875,3 A 8,8 0 0 0 3.0839844,5 H 16.919922 A 8,8 0 0 0 15.277344,3 Z M 2.2597656,7 A 8,8 0 0 0 2,9 H 18 A 8,8 0 0 0 17.734375,7 Z m 0.00586,4 a 8,8 0 0 0 0.8164062,2 H 19.998047 A 1.0001,1.0001 0 0 0 19.865234,12.5 L 19,11 Z M 4.72461,15 A 8,8 0 0 0 5,15.244141 V 17 H 17.929688 C 17.971311,16.866041 18,16.72606 18,16.578125 V 15 Z M 5,19 v 0.578125 C 5,20.365359 5.634641,21 6.421875,21 h 6.15625 C 13.365359,21 14,20.365359 14,19.578125 V 19 Z"/>
 <path style="opacity:0.2" d="M 4.71875,3 A 8,8 0 0 0 3.0839844,5 H 3.4101562 A 8,8 0 0 1 4.71875,3.5 H 15.277344 A 8,8 0 0 1 16.595703,5 h 0.324219 A 8,8 0 0 0 15.277344,3 Z M 2.2597656,7 A 8,8 0 0 0 2,9 H 2.019531 A 8,8 0 0 1 2.2597656,7.5 H 17.734375 A 8,8 0 0 1 17.972656,9 H 18 A 8,8 0 0 0 17.734375,7 Z m 0.00586,4 a 8,8 0 0 0 0.15625,0.5 H 19 l 0.865234,1.5 h 0.132813 A 1.0001,1.0001 0 0 0 19.865234,12.5 L 19,11 Z M 4.72461,15 A 8,8 0 0 0 5,15.244141 V 15.5 H 18 V 15 Z M 5,19 v 0.5 h 9 V 19 Z"/>
</svg>

<svg xmlns="http://www.w3.org/2000/svg" width="22" height="22"><path style="opacity:.2" d="M10 1.5a8 8 0 0 1 8 8 8 8 0 0 1-.008.254l.549.951L19.865 13A1 1 0 0 1 19 14.5h-1v2.578a1.42 1.42 0 0 1-1.422 1.422H14v1.578a1.42 1.42 0 0 1-1.422 1.422H6.422A1.42 1.42 0 0 1 5 20.078v-4.334A8 8 0 0 1 2 9.5a8 8 0 0 1 8-8z"/><circle style="fill:#4897e1" cx="-10" cy="9" r="8" transform="scale(-1 1)"/><rect style="fill:#4897e1" width="9" height="9" x="-14" y="12" rx="1.421" ry="1.421" transform="scale(-1 1)"/><rect style="fill:#4897e1" width="9" height="9" x="-18" y="9" rx="1.421" ry="1.421" transform="scale(-1 1)"/><path style="fill:#4897e1" d="M16.402 7.41a1 1 0 0 1 .813.498l1.326 2.296 1.325 2.296A1 1 0 0 1 19 14h-5.302a1 1 0 0 1-.866-1.5l1.325-2.296 1.326-2.296a1 1 0 0 1 .82-.499 1 1 0 0 1 .1 0z"/><path style="opacity:.2;fill:#fff" d="M10 1a8 8 0 0 1 8 8 8 8 0 0 1-.008.254A8 8 0 0 0 10 1.5a8 8 0 0 0-7.988 7.75A8 8 0 0 1 2 9a8 8 0 0 1 8-8zm7.992 8.254.549.951 1.324 2.295a1 1 0 0 1 .102.75 1 1 0 0 0-.102-.25l-1.324-2.295-.549-.951A8 8 0 0 0 18 9.5a8 8 0 0 0-.008-.246z"/><path style="opacity:.3" d="M4.719 3a8 8 0 0 0-1.635 2H16.92a8 8 0 0 0-1.643-2zm-2.46 4A8 8 0 0 0 2 9h16a8 8 0 0 0-.266-2zm.007 4a8 8 0 0 0 .816 2h16.916a1 1 0 0 0-.133-.5L19 11zm2.459 4a8 8 0 0 0 .275.244V17h12.93c.041-.134.07-.274.07-.422V15zM5 19v.578A1.42 1.42 0 0 0 6.422 21h6.156A1.42 1.42 0 0 0 14 19.578V19z"/><path style="opacity:.2" d="M4.719 3a8 8 0 0 0-1.635 2h.326A8 8 0 0 1 4.72 3.5h10.558A8 8 0 0 1 16.596 5h.324a8 8 0 0 0-1.643-2zm-2.46 4A8 8 0 0 0 2 9h.02a8 8 0 0 1 .24-1.5h15.474a8 8 0 0 1 .239 1.5H18a8 8 0 0 0-.266-2zm.007 4a8 8 0 0 0 .156.5H19l.865 1.5h.133a1 1 0 0 0-.133-.5L19 11zm2.459 4a8 8 0 0 0 .275.244v.256h13V15zM5 19v.5h9V19z"/></svg>
